packages/icons/src/__generated__/ui/svg/ui-diamondInactive-12.svg

<svg xmlns="http://www.w3.org/2000/svg" fill="#1652F0" viewBox="0 0 12 12"><path d="M2.246 1 0 5.005l5.993 6.994L12 5.005 9.752 1H2.246Zm2.989 4.946v2.86l-2.457-2.86h2.457Zm1.499 0H9.19l-2.457 2.86v-2.86Zm.98-1.499 1.214-1.816 1.024 1.816H7.715Zm-1.73-.109-1.227-1.84h2.48l-1.253 1.84ZM3.041 2.622l1.213 1.816H2.02l1.02-1.816Z"/></svg>

<svg xmlns="http://www.w3.org/2000/svg" fill="#1652F0" viewBox="0 0 12 12"><path d="M2.25 1 0 5l6 7 6-7-2.25-4h-7.5Zm2.98 4.95V8.8L2.78 5.95h2.45Zm1.5 0H9.2L6.73 8.8V5.95Zm.98-1.5 1.22-1.82 1.02 1.82H7.71Zm-1.73-.11L4.76 2.5h2.48L5.98 4.34ZM3.04 2.62l1.21 1.82H2.02l1.02-1.82Z"/></svg>
